X: 114203
T: LADY LUCY RAMSAY
Q: "Strathspey."
R:  Strathspey.
%R: strathspey
B: James Kerr "Merry Melodies" v.1 p.14 s.2 #3
Z: 2017 John Chambers <jc:trillian.mit.edu>
M: C
L: 1/8
K: C
uf |\
ve<ug vg>ua vg>ve (c<a) | vg<c a>c ve<d d>f |\
e<g g>a g>a g<e | f<d B<g e<c c ::\
uc |\
vG>vcuE>uc  d>cd>e |
vc<c e>d vc<A A>c |\
[1 G>cE>c d>cd>e | c>G A/B/c/G/ E<C C :|\
G>cE>c F>d E>c | D<a g>f e<c c |]

%%sep 1 1 500
%%sep 1 1 500

